X:634
%%etbk:tnset id:378,pos:1,rep:3x,ant:
%%etbk:wsite https://thesession.org/tunes/791
%%etbk:pldat 2016-05-29T15:33,2016-05-24T17:27,2015-07-18T16:18,2015-06-05T16:06,2015-06-03T18:42,2015-04-26T15:16,2015-04-08T18:14,2015-03-26T19:10,2015-03-04T17:02
T: Father Kelly's
Z: Piano Box Version by Martin Fleischmann
H: Created 2015-03-05 /  Last Modified 2015-06-04
R: reel
M: 4/4
L: 1/8
K: Gmaj
GA|: "G"!5!B2 !3!GB AG!2!EG | !1!D!3!GG!2!F !1!G2AB | "C"!4!c2 AB cBAG | "D"!2!FAAG FD GA |
"G"B2 GB AGEG | DGGF !1!G2!3!B!4!c |  !3!d2 !1!B!3!d !5!gdBd | "D"!2!cAFA "G"G2 :|
Bc |: "G"!3!d2 !1!(3.B.c.d !5!gdBd | d2 (3.B.c.d gdBd | "C"!4!e2 c!4!e !5!agfe | "D"defg agfe |
"G"!1!d!3!d (3.B.c.d gdBd | "G"d2 (3.B.c.d gdBd | "C"!4!c!3!B!2!A!4!c !3!BAGB |"D" !2!A!1!G!2!F!4!A "G"!1!G2 :|


